packages/vibrant-icons/assets/icons/TextAlignCenter/Fill.svg

<svg width="24" height="24" viewBox="0 0 24 24" fill="none" xmlns="http://www.w3.org/2000/svg">
<path d="M2.1499 15.6004V13.4004H21.8499V15.6004H2.1499ZM6.1499 10.6004V8.4004H17.8499V10.6004H6.1499ZM2.1499 5.60039V3.40039H21.8499V5.60039L2.1499 5.60039Z" fill="#0C0C0C"/>
<path d="M6.1499 18.4004V20.6004H17.8499V18.4004H6.1499Z" fill="#0C0C0C"/>
</svg>

<svg xmlns="http://www.w3.org/2000/svg" width="24" height="24" fill="none"><path fill="#0C0C0C" d="M2.15 15.6v-2.2h19.7v2.2zm4-5V8.4h11.7v2.2zm-4-5V3.4h19.7v2.2zm4 12.8v2.2h11.7v-2.2z"/></svg>
